X: 7633
T: Coket Side
R: reel
M: 4/4
K: Gmajor
|:edBG BgB2|edBG BgA2|edBG BgB2|egfa gBA2:|
|:BgBg g/f/e/d/ gd|BgBg g/f/e/d/ A2|BgBg g/f/e/d/ gd|egfa gBA2:|

